X: 7670
T: Coleman's
R: slip jig
M: 9/8
K: Edorian
|:"Em"B2E E2D B,2A,|B,2E E2F G2A|B2E E2D B,2A,|
[1"D"B,2D D2C D2A:|2 "D"B,2D D2C D3||
|:"Em"B2e e2d e3|B2e e3 dcB|
[1"D"A2d d2c d3|"Em"e2c "D"d2B "A"A2c:|
[2"D"A2d d2c d2z|"Em"edc"D"d zB"A"A2c|"Em"B9||

